X:1055
T:Variations on a Tyrolienne
T:(trombone transcription)
T:Introduction
C:Joseph Jean Baptiste Laurent Arban
B:From "Method for the Cornet"
Z:Transcribed by Laura Conrad - http://www.world.std.com/~lconrad/
F:http://abc.musicaviva.com/tunes/arban-joseph-jean-baptiste-laur/tyrolienne-trb.abc
%%partsfont Helvetica 12
M:9/8
L:1/8
K:F bass
%1
"Andante moderato" f6 ea^c | e3 d2 z Adf | a3-afd bge | d3 ^c2 z z2 z |
%2
f5 f ^f3 | {ef}g2 d b3-b2 a | a^gd f3 ^G3 | A3-A2 z z2 z | c3-cag f{gf}e/f/b/a/ |
%3
^f3 g3 b3/4a//g3/4f//e3/4d// | d2 c c3 {dc=B}c/e/g/b/d'/c' | b3 a3 z2 z | c {d/c/}=B/c/d/c/ f/c/a/f/"rall."c'-c'/b/a/g/f/e/ | 
%4
^c-c//d//e//d// a//b//c'//b// ^f//g//a//g// d//e//d//^c// d//e//f//^f// g//f//e//f// g/a/b/=b/ | (3c'c'~^c' (3Hd'/=c'/=b/ (3_b/a/g/ (3f/e/d/ {d}(3~cHa>g | f3 |]
